X:135
T: Annaghbeg
S: "Johnny O'Leary of Sliabh Luachra" (#18)
Z: B.Black
L: 1/8
M: 2/4
R: polka
K: D
AA/F/ Ad|A/d/A/F/ Ad|ce Bc|BA FA|
A/d/A/F/ Ad|A/d/A/F/ Ad|ce/c/ Bc|1 ed d2 :|2\
ed dd/e/ ||
f2 ed/e/|fe ef/e/|dc BA|BA FA|
fd/f/ ed/e/|fe ef/e/|dc Bc|ed d2|
f2 ed/e/|fe ef/e/|dc BA|B/d/B/A/ FA|
A/d/A/F/ Ad|A/d/A/F/ Ad|ce/c/ Bc|ed d2 ||
